!!!COM:	la Rue, Pierre de
!!!CDT:	~1452///-1518/11/20
!!!OPR:	Missa Assumpta est Maria
!!!ONM:	1
!!!OTL:	Kyrie
!!!AGN:	Mass; Kyrie
!!!SCT:	Rue1003a
!!!SCA:	Rue1003a
!!!voices:	4
!!!voices-OPR:	4
**kern	**kern	**kern	**kern
*staff4	*staff3	*staff2	*staff1
*Ivox	*Ivox	*Ivox	*Ivox
*I"Bassus	*I"Tenor	*I"Contra	*I"Discantus
*I'B	*I'T	*I'C	*I'D
*>[A,B,C]	*>[A,B,C]	*>[A,B,C]	*>[A,B,C]
*>A	*>A	*>A	*>A
*clefF4	*clefF4	*clefGv2	*clefGv2
*k[b-]	*k[b-]	*k[b-]	*k[b-]
*M3/1	*M3/1	*M3/1	*M3/1
*met(O)	*met(O)	*met(O)	*met(O)
!!section: Kyrie I
!!!OMD: Kyrie I
=1-	=1-	=1-	=1-
0C	0.C	0G	0c
[1FF	.	1A	1c
=2	=2	=2	=2
1FF]	0C	1F	0A
0C	.	1E	.
.	1E	2G/	1c
.	.	2A/	.
=3	=3	=3	=3
0BB-	0.F	2.B-\	1d
.	.	4c\	.
.	.	4d\	1.f
.	.	4c\	.
.	.	4B-\	.
.	.	4A/	.
1D	.	1B-	.
.	.	.	2e\
=4	=4	=4	=4
0C	1G	1c	0e
.	2G\	1r	.
.	1A	.	.
1AA	.	1C	1e
.	2A\	.	.
=5	=5	=5	=5
1BB-	0.F	2D/	1d
.	.	2.D/	.
2BB-/	.	.	2d\
.	.	4E/	.
1AA	.	4F/	1c
.	.	4G/	.
.	.	1A	.
2AA/	.	.	4B-\
.	.	.	4A/
=6	=6	=6	=6
0GG	0G	1D	2.B-\
.	.	.	4c\
.	.	2r	2d\
.	.	2.d\	2B-\
1r	1F	.	1A
.	.	4c\	.
.	.	2A/	.
=7	=7	=7	=7
0GG	1r	0B-	1G
.	1r	.	1r
1D	[1F	1A	1r
=8	=8	=8	=8
2D\	1F]	2A/	0d
1BB-	.	2.B-\	.
.	0G	.	.
.	.	4c\	.
2GG/	.	1d	.
1GG	.	.	1d
.	.	2B-\	.
=9	=9	=9	=9
1C	1G	2.c\	1e
.	.	4B-\	.
2C/	2E\	2G/	2e\
1FF	2.F\	1A	1c
.	4G\	.	.
2C/	2E\	[2G/	2c\
=10	=10	=10	=10
2GG/	2D\	4G/]	2d\
.	.	4F/	.
2.C/	2C/	2E/	2e\
.	1D	1D	2.f\
4BBni/	.	.	.
2BBni/	.	.	.
.	.	.	4g\
1C	1C	2r	1e
.	.	2E/	.
=11	=11	=11	=11
2r	0.r	2.F/	2r
2FF/	.	.	2A/
.	.	4G/	.
2GG/	.	1E	2B-\
2AA/	.	.	2c\
2.BB-/	.	2D/	2.d\
.	.	[2G/	.
4C/	.	.	4e\
=12	=12	=12	=12
1AA	2r	4G/]	2c\
.	.	4F/	.
.	2C/	2F/	2A/
1GG	2D\	1G	2.B-\
.	2E\	.	.
.	.	.	4c\
1r	2.F\	1r	1A
.	4G\	.	.
=13	=13	=13	=13
2.C/	1E	2G/	2r
.	.	2A/	2c\
4AA/	.	.	.
2BB-/	1r	2G/	2d\
2C/	.	1c	2e\
1D	1F	.	2.f\
.	.	2B-\	.
.	.	.	4g\
=14	=14	=14	=14
2C/	2G\	2.c\	2e\
1F	1A	.	2c\
.	.	4B-\	.
.	.	4A/	2d\
.	.	4G/	.
2E\	1G	1c	2e\
1D	.	.	2.f\
.	2F\	2Bni\	.
.	.	.	4g\
=15	=15	=15	=15
0.Cl	0.Gl	0.cl	0.el
!!LO:LB:i:g=z
=16||	=16||	=16||	=16||
*>B	*>B	*>B	*>B
*clefF4	*clefF4	*clefGv2	*clefGv2
*k[b-]	*k[b-]	*k[b-]	*k[b-]
*M2/1	*M2/1	*M2/1	*M2/1
*met(C|)	*met(C|)	*met(C|)	*met(C|)
!!section: Christe
!!!OMD: Christe
0FF	0F	0A	[0c
=17	=17	=17	=17
0C	0E	0G	0c]
=18	=18	=18	=18
0AA	0C	0F	0c
=19	=19	=19	=19
0GG	0D	0G	0B-
=20	=20	=20	=20
1r	1r	1r	0A
1D	[1F	1A	.
=21	=21	=21	=21
2D\	1F]	2A/	1r
1BB-	.	1B-	.
.	[1F	.	1d
4AA/	.	2B-\	.
4GG/	.	.	.
=22	=22	=22	=22
0FF	1F]	0A	2d\
.	.	.	1c
.	[1F	.	.
.	.	.	2c\
=23	=23	=23	=23
2.D\	0F]	1r	2B-\
.	.	.	2A/
4C/	.	.	.
2BB-/	.	1F	1d
2AA/	.	.	.
=24	=24	=24	=24
2C/	2E\	1A	1.c
2FF/	1F	.	.
1C	.	1G	.
.	2E\	.	2G/
=25	=25	=25	=25
[0FF	[0F	1F	2A/
.	.	.	1c
.	.	2F/	.
.	.	[2A/	2F/
=26	=26	=26	=26
0FF]	0F]	2A/]	2c\
.	.	2B-\	2d\
.	.	[1c	2c\
.	.	.	[2f\
=27	=27	=27	=27
0C	0G	1c]	2f\]
.	.	.	2e\
.	.	1c	2.e\
.	.	.	4d\
=28	=28	=28	=28
0FF;	0F;	0A;	0f;
=29	=29	=29	=29
[0C	[0G	[0c	[0e
=30	=30	=30	=30
0C]	0G]	0c]	0e]
=31	=31	=31	=31
[0BB-	0B-	1.d	1.f
.	.	2c\	2e\
=32	=32	=32	=32
1BB-]	1.F	1B-	1d
1FF	.	1A	1c
.	2E\	.	.
=33	=33	=33	=33
1GG	1D	1G	1B-
2.AA/	1C	[1c	1A
4BB-/	.	.	.
=34	=34	=34	=34
0C	0E	1c]	2G/
.	.	.	2c\
.	.	1c	2G/
.	.	.	[2c\
=35	=35	=35	=35
0GG	0D	1.d	2c\]
.	.	.	4B-\
.	.	.	4A/
.	.	.	1B-
.	.	4c\	.
.	.	4B-\	.
=36	=36	=36	=36
0r	0r	4c\	2A/
.	.	4B-\	.
.	.	4A/	1G
.	.	4G/	.
.	.	1A	.
.	.	.	2F#i/
=37	=37	=37	=37
0GG	0D	2r	2G/
.	.	2.G/	2.B-\
.	.	4A/	4c\
.	.	2B-\	2d\
=38	=38	=38	=38
0r	0r	4c\	4e-i\
.	.	4B-\	4d\
.	.	4A/	4c\
.	.	4G/	4B-\
.	.	1A	1c
=39	=39	=39	=39
[0GG	[0D	0G	1B-
.	.	.	[1d
=40	=40	=40	=40
0GG]	0D]	1G	2d\]
.	.	.	4e\
.	.	.	4f\
.	.	1G	1g
=41	=41	=41	=41
0FF	0F	1A	1c
.	.	[1c	1f
=42	=42	=42	=42
1.C	0G	2c\]	1e
.	.	4B-\	.
.	.	4A/	.
.	.	[1G	2e\
2BB-/	.	.	[2d\
=43	=43	=43	=43
1C	1E	1G]	2d\]
.	.	.	1c
1GG	1D	1G	.
.	.	.	2Bni\
=44	=44	=44	=44
0CCl	0Cl	0El	0cl
!!LO:LB:i:g=z
=45||	=45||	=45||	=45||
*>C	*>C	*>C	*>C
*clefF4	*clefF4	*clefGv2	*clefGv2
*k[b-]	*k[b-]	*k[b-]	*k[b-]
*M3/1	*M3/1	*M3/1	*M3/1
*met(O)	*met(O)	*met(O)	*met(O)
!!section: Kyrie II
!!!OMD: Kyrie II
0C	0C	0G	0c
[1AA	[1C	[1c	[1e
=46	=46	=46	=46
1AA]	1C]	1c]	1e]
0FF	0C	0A	0f
=47	=47	=47	=47
0C	0E	2G/	1g
.	.	2A/	.
.	.	2G/	2g\
.	.	1c	1a
1D	1F	.	.
.	.	2B-\	4g\
.	.	.	4f\
=48	=48	=48	=48
1.C	0.G	0c	2.e\
.	.	.	4f\
.	.	.	2g\
4BB-/	.	.	2c\
4AA/	.	.	.
1GG	.	1B-	2d\
.	.	.	2e\
=49	=49	=49	=49
0FF	0A	0c	1.f
.	.	.	1.c
1FF	1A	1r	.
=50	=50	=50	=50
1.BB-	1.B-	0F	1d
.	.	.	2d\
1.FF	1.A	.	1c
.	.	2.F/	.
.	.	.	2c\
.	.	4E/	.
=51	=51	=51	=51
2GG/	2G\	2D/	2B-\
2C/	2E\	2C/	2G/
2GG/	2G\	2D/	2B-\
2AA/	1F	2C/	2A/
2BB-/	.	2D/	2.G/
2C/	2E\	2E/	.
.	.	.	4F/
=52	=52	=52	=52
0FF	0.F	0C	1F
.	.	.	1r
1r	.	[1c	1f
=53	=53	=53	=53
0.C	0.r	1c]	1e
.	.	1G	0c
.	.	1A	.
=54	=54	=54	=54
1BB-	0F	1B-	1d
2.FF/	.	2.A/	2d\
.	.	.	1c
4GG/	.	4B-\	.
2AA/	[1E	2c\	.
2BB-/	.	2d\	4B-\
.	.	.	4A/
=55	=55	=55	=55
1C	1E]	0.c	1G
0FF	0C	.	1.A
.	.	.	2F/
=56	=56	=56	=56
2r	2.D\	0.r	1F
2BB-/	.	.	.
.	4E\	.	.
2AA/	2F\	.	1r
2BB-/	2.G\	.	.
2.C/	.	.	1r
.	4F\	.	.
.	4E\	.	.
4BB-/	4D\	.	.
=57	=57	=57	=57
4AA/	2C/	0.r	0.r
4GG/	.	.	.
1FF	2D\	.	.
.	2C/	.	.
2AA/	1F	.	.
1GG	.	.	.
.	2E\	.	.
=58	=58	=58	=58
1FF	0F	0c	1A
1r	.	.	2.A/
.	.	.	4B-\
1FF	2.F\	2A/	2c\
.	.	2c\	2A/
.	4E\	.	.
=59	=59	=59	=59
2.GG/	2D\	2G/	2B-\
.	2C/	2c\	1G
4AA/	.	.	.
2BB-/	2D\	4B-\	.
.	.	4A/	.
2C/	2E\	2G/	2c\
2FF/	[1F	1F	2A/
[2BB-/	.	.	[2d\
=60	=60	=60	=60
2BB-/]	1F]	2r	2d\]
2AA/	.	1A	1c
1FF	1F	.	.
.	.	2A/	2f\
2C/	[1G	2G/	2e\
2BB-/	.	[2B-\	[2d\
=61	=61	=61	=61
1GG	1G]	4B-\]	2d\]
.	.	4c\	.
.	.	2.d\	2.g\
1D	1A	.	.
.	.	4c\	4e\
.	.	4B-\	2f\
.	.	4A/	.
2r	1G	2B-\	4e\
.	.	.	4d\
2GG/	.	2G/	4c\
.	.	.	4B-\
=62	=62	=62	=62
2AA/	2F\	2c\	2A/
2BB-/	2.G\	2B-\	1G
1C	.	0G	.
.	4C/	.	.
.	2E\	.	1c
1GG	1D	.	.
.	.	.	2Bni\
=63	=63	=63	=63
0.CCl	0.Cl	0.Gl	0.cl
==	==	==	==
*-	*-	*-	*-
!!!RDF**kern: l=long note in original notation
!!!RDF**kern: i=editorial accidental
!!!RDF**kern: V=start of tuplet marker
!!!RDF**kern: Z=end of tuplet marker
!!!ENC:	Chris Gage 11-19-2012
!!!END:	2012/11/19/
!!!EED:	Jesse Rodin
!!!EEV:	2012/12/15/
!!!ONB:	Translated from MusicXML and edited on 2012/12/15/ by Craig Sapp
!!muse2ps: T^@{OPR}^u^@{ONM}{. }@{OTL}^C^@{COM}^i2I150v85,85,85,150Q8c115
